Newaita/actions/22/view-split-top-bottom.svg

<svg height="22" viewBox="0 0 22 22" width="22" xmlns="http://www.w3.org/2000/svg"><g fill="#424242"><path d="m19.101562 10.175781h-16.371093v-.90625h16.371093zm0 0"/><path d="m3.636719 1.992188c-1.007813 0-1.816407.808593-1.816407 1.816406v6.371094h1.816407v-5.460938c0-.503906.40625-.910156.910156-.910156h12.734375c.503906 0 .910156.40625.910156.910156v5.460938h1.820313v-6.371094c0-1.007813-.8125-1.816406-1.820313-1.816406zm-1.816407 10.003906v6.367187c0 1.007813.808594 1.820313 1.816407 1.820313h14.554687c1.007813 0 1.820313-.8125 1.820313-1.820313v-6.367187h-1.820313v5.457031c0 .503906-.40625.910156-.910156.910156h-12.734375c-.503906 0-.910156-.40625-.910156-.910156v-5.457031zm0 0"/><path d="m9.097656 2.902344v6.890625h-.910156v-6.890625zm0 0"/><path d="m19.101562 12.90625h-16.371093v-.910156h16.371093zm0 0"/><path d="m9.097656 11.996094v7.277344h-.910156v-7.277344zm0 0"/></g></svg>

<?xml version="1.0" encoding="UTF-8"?>
<svg xmlns="http://www.w3.org/2000/svg" xmlns:xlink="http://www.w3.org/1999/xlink" width="22px" height="22px" viewBox="0 0 22 22" version="1.1">
<g id="surface1">
<path style=" stroke:none;fill-rule:nonzero;fill:rgb(25.882354%,25.882354%,25.882354%);fill-opacity:1;" d="M 19.101562 10.175781 L 2.730469 10.175781 L 2.730469 9.269531 L 19.101562 9.269531 Z M 19.101562 10.175781 "/>
<path style=" stroke:none;fill-rule:nonzero;fill:rgb(25.882354%,25.882354%,25.882354%);fill-opacity:1;" d="M 3.636719 1.992188 C 2.628906 1.992188 1.820312 2.800781 1.820312 3.808594 L 1.820312 10.179688 L 3.636719 10.179688 L 3.636719 4.71875 C 3.636719 4.214844 4.042969 3.808594 4.546875 3.808594 L 17.28125 3.808594 C 17.785156 3.808594 18.191406 4.214844 18.191406 4.71875 L 18.191406 10.179688 L 20.011719 10.179688 L 20.011719 3.808594 C 20.011719 2.800781 19.199219 1.992188 18.191406 1.992188 Z M 1.820312 11.996094 L 1.820312 18.363281 C 1.820312 19.371094 2.628906 20.183594 3.636719 20.183594 L 18.191406 20.183594 C 19.199219 20.183594 20.011719 19.371094 20.011719 18.363281 L 20.011719 11.996094 L 18.191406 11.996094 L 18.191406 17.453125 C 18.191406 17.957031 17.785156 18.363281 17.28125 18.363281 L 4.546875 18.363281 C 4.042969 18.363281 3.636719 17.957031 3.636719 17.453125 L 3.636719 11.996094 Z M 1.820312 11.996094 "/>
<path style=" stroke:none;fill-rule:nonzero;fill:rgb(25.882354%,25.882354%,25.882354%);fill-opacity:1;" d="M 9.097656 2.902344 L 9.097656 9.792969 L 8.1875 9.792969 L 8.1875 2.902344 Z M 9.097656 2.902344 "/>
<path style=" stroke:none;fill-rule:nonzero;fill:rgb(25.882354%,25.882354%,25.882354%);fill-opacity:1;" d="M 19.101562 12.90625 L 2.730469 12.90625 L 2.730469 11.996094 L 19.101562 11.996094 Z M 19.101562 12.90625 "/>
<path style=" stroke:none;fill-rule:nonzero;fill:rgb(25.882354%,25.882354%,25.882354%);fill-opacity:1;" d="M 9.097656 11.996094 L 9.097656 19.273438 L 8.1875 19.273438 L 8.1875 11.996094 Z M 9.097656 11.996094 "/>
</g>
</svg>
